!!!COM: Scriabin, Alexander
!!!OTL: Mazurka
!!!OPR: 9 Mazurkas
!!!OPS: 25
!!!ONM: 9
!!!ODT: 1899
!!!AGN: Mazurka
**kern	**kern
*staff2	*staff1
*clefF4	*clefG2
*k[b-e-a-d-g-c-]	*k[b-e-a-d-g-c-]
*e-:	*e-:
*M3/4	*M3/4
=1	=1
*^	*
2.B-	8.rEE	4r
.	16BB-	.
.	2Cn	4g-
.	.	4f
=2	=2	=2
2.B-	8.rEE	4r
.	16Cn	.
.	2D-	4g-
.	.	4f
=3	=3	=3
2.B-	8.rEE	4r
.	16D-	.
.	[2Dn	8g-L
.	.	8en
.	.	8g-
.	.	8fJ
=4	=4	=4
2c-	4D]	8a-L
.	.	16r
.	.	16ffJk
.	4E-	4.ff
4c- [4a-	4rEE	.
.	.	8ee-X
*v	*v	*
=5	=5
4G- 4a-]	8dd-XL
.	8ddnJ
4F 4dn	4.ccc-
4G- 4e-	.
.	8ccc-
=6	=6
*^	*
4f-X	2A-	8ccc-L
.	.	8bb-
4fn	.	8dd-X
.	.	8ddn
4rc	4G- 4B-	8ff
.	.	8ee-J
*v	*v	*
=7	=7
2F 2e-	8gg-L
.	8b-
.	8a-
.	8an
4An 4g-	8dd-X
.	8cc-J
=8	=8
*^	*
4g-	2.B-	8ee-L
.	.	8dd-
4f	.	8ee-
.	.	8ddn
4dn	.	8b-
.	.	8a-XJ
=9	=9	=9
2.B-	8.rEE	4r
.	16BB-	.
.	2Cn	4g-
.	.	4f
=10	=10	=10
2.B-	8.rEE	4r
.	16Cn	.
.	2D-	4g-
.	.	4f
=11	=11	=11
2.B-	8.rEE	4r
.	16D-	.
.	[2Dn	8g-L
.	.	8en
.	.	8g-
.	.	8fJ
=12	=12	=12
2c-	4D]	8a-L
.	.	16r
.	.	16ffJk
.	4E-	4.ff
4c- [4a-	4rEE	.
.	.	8ee-X
*v	*v	*
=13	=13
4G- 4a-]	8dd-XL
.	8ddnJ
4F 4dn	4.ccc-
4G- 4e-	.
.	8ccc-
=14	=14
4A- 4f-X	8ccc-L
.	8bb-
4A-- 4fn	8dd-X
.	8ddn
*clefG2	*
4dn 4cc-	8een
.	8ffJ
=15	=15
*^	*
4cc-	4.e-	8aa-L
.	.	8gg-
4g-	.	8b-
.	4.G-	8cc-
4b-	.	8ee-X
.	.	8dd-J
=16	=16	=16
4a-	2c-	8ff-XL
.	.	8dd-
4g-	.	8ff-
.	.	8ee-J
4raa	8e-L	4cc-
.	8fnJ	.
*v	*v	*
=17	=17
*	*^
2g-	8raa	2.b-
.	8ccn	.
.	8ee-L	.
.	8dd-J	.
4d-	[4ff-X	.
=18	=18	=18
4d-	8ff-L]	2b-
.	8ee-	.
4cn	8gg-	.
.	8ff-XJ	.
4c#X	[4bb-	8eenL
.	.	8gg-J
=19	=19	=19
2dn	8bb-L]	2ffn
.	8aan	.
.	8ccc-X	.
.	8bb-	.
[4c#X	8gg-	[4b-
.	8eenJ	.
=20	=20	=20
4c#]	4.gg-	4b-]
4dn	.	4.b-
.	8ff	.
4f	8.ddnL	.
.	.	8a-X
.	16ddJk	.
=21	=21	=21
4.f	8ddnL	2g-
.	8b-	.
.	8dd	.
8e-	8ccnJ	.
8dnL	[4ee-	4b-
8cnJ	.	.
=22	=22	=22
2f	8ee-L]	2an
.	8bn	.
.	8ddn	.
.	8ccn	.
8dnL	8ff	4a
8fJ	8ddJ	.
=23	=23	=23
4b-	8b-XL	4b-
.	8ddn	.
4r	8an	4rc
.	8cc-X	.
4r	8b-	4rc
.	8g-J	.
*	*v	*v
*clefF4	*
=24	=24
8r	8f
8b-L	8r
8en	4r
8g-	.
8f	4r
8dnJ	.
=25	=25
*^	*
2.B-	8.rEE	4r
.	16BB-	.
.	2Cn	4g-
.	.	4f
=26	=26	=26
2.B-	8.rEE	4r
.	16Cn	.
.	2D-	4g-
.	.	4f
=27	=27	=27
2.B-	8.rEE	4r
.	16D-	.
.	[2Dn	8g-L
.	.	8en
.	.	8g-
.	.	8fnJ
=28	=28	=28
2c-	4D]	8a-L
.	.	16r
.	.	16ffJk
.	4E-	4.ff
4c- [4a-	4rEE	.
.	.	8ee-X
*v	*v	*
=29	=29
4G- 4a-]	8dd-XL
.	8ddnJ
4F 4dn	4.ccc-
4G- 4e-	.
.	8ccc-
=30	=30
*^	*
4f-X	2A-	8ccc-L
.	.	8bb-
4fn	.	8dd-X
.	.	8ddn
4G- [4b-	4rEE	8ff
.	.	8ee-J
*v	*v	*
=31	=31
4A- 4b-]	8ee-L
.	8eenJ
*clefG2	*
4Gn 4en	4.ddd-
4A- 4f	.
.	8ddd-
=32	=32
*^	*
4g-X	2B-	8ddd-L
.	.	8cccn
4gn	.	8ee-X
.	.	8een
4ccn	4A-	8ggn
.	.	8ffJ
=33	=33	=33
4ccn	2An	8ffL
.	.	8gg-XJ
4cc-X	.	4.fff
4A [4g-	4rc	.
.	.	8eee-
*v	*v	*
=34	=34
4B- 4g-]	8eee-L
.	8dddn
4e- 4cc-	8ff
.	8gg-
4g- 4b-	8ddd-X
.	8cccnJ
=35	=35
*^	*
2.a-	4g-	8ccc-XL
.	.	8ee-
.	4f	8dd-
.	.	8ddn
.	4B-	8gg-
.	.	8ffJ
=36	=36	=36
4cc-	[2e-	8aa-L
.	.	8ff
4b-	.	8aa-
.	.	8gg-
8g-	8e-]	8ee-
8raa	8rc	8cc-J
*v	*v	*
=37	=37
*clefF4	*
4EE-	8r
.	8b-
4BB- 4A-	8e-L
.	16r
.	16dnJk
4r	[4g-
=38	=38
4EE-	8g-L]
.	8f
4BB- 4G-	8B-
.	8cn
4r	8dn
.	8e-J
=39	=39
*^	*
*	*^	*
4rc	4rEE	2.EE-\	8fL
.	.	.	8g-
2G-	4AA-	.	8dd-X
.	.	.	8cc-X
.	4AAn	.	8ee-
.	.	.	8c-J
*	*v	*v	*
=40	=40	=40
4rc	2EE-	8B-L
.	.	8dn
4BB- 4G-	.	8g-
.	.	8e-
4rc	4rEE	8dd-X
.	.	8cc-J
=41	=41	=41
4rc	2.EE-	8r
.	.	8b-
4BB- 4A-	.	8e-L
.	.	16r
.	.	16dnJk
4rc	.	[4g-
=42	=42	=42
*	*^	*
4rc	4rEE	2EE-/	8g-L]
.	.	.	8f
4G-	4.BB-	.	8B-
.	.	.	8cn
4B-	.	4GG-/	8dn
.	8Cn	.	8e-J
*	*v	*v	*
=43	=43	=43
4rc	2.FF	8enL
.	.	8fJ
4D-X 4B-	.	4dd-X
4E- 4An	.	4cc-X
=44	=44	=44
4E- 4An	2BB-	4ff
4Dn 4B-	.	8b-L
.	.	8a-X
4rc	4rEE	8g-
.	.	8fJ
*v	*v	*
=45	=45
4EE-	8r
.	8b-
4BB- 4A-X	8e-L
.	16r
.	16dnJk
4r	[4g-
=46	=46
4EE-	8g-L]
.	8f
4BB- 4G-	8B-
.	8cn
4r	8dn
.	8e-J
=47	=47
*^	*
*	*^	*
4rc	4rEE	2.EE-/	8fL
.	.	.	8g-
2G-	4AA-	.	8dd-X
.	.	.	8cc-X
.	4AAn	.	8ee-
.	.	.	8c-J
*v	*v	*v	*
=48	=48
4EE-	8B-L
.	8dn
4BB- 4G-	8g-
.	8e-
4r	8dd-X
.	8cc-J
=49	=49
*^	*^
4rc	2.BB-	4raa	8rc
.	.	.	8b-
4rc	.	4raa	8e-L
.	.	.	16r
.	.	.	[16dnJk
[4c-	.	[4g-	4d]
=50	=50	=50	=50
4.c-]	2E-	8g-L]	2e-
.	.	8g-	.
.	.	8f	.
8B-	.	8g-	.
8c-L	4E--	8a-	4g-
8cnJ	.	8anJ	.
=51	=51	=51	=51
8d-L	2.D-	8b-L	2.g-
8B-J	.	8gg-	.
4An	.	8ccn	.
.	.	8ee-	.
8B-L	.	8dd-	.
8d-J	.	8b-J	.
*v	*v	*	*
=52	=52	=52
4DD- 4D-	8b-L	2.c-X 2.f
.	8a-X	.
4EE-- 4E--	8gn	.
.	8a-J	.
4DD- 4D-	4raa	.
=53	=53	=53
4GGG- 4GG-	4raa	4rc
4GGGn 4GGn	[2f	[2c-
4AAA- 4AA-	.	.
=54	=54	=54
4DD- 4D-	4f]	4c-]
4CCn 4Cn	4.ee-	2A- 2f
4CC-X 4C-X	.	.
.	8ee-	.
=55	=55	=55
2BBB- 2BB-	4ee-	2A- 2f
.	4dd-	.
4BBB- 4BB-	4f	4A- 4d-
=56	=56	=56
*	*	*^
4BBB- 4BB-	4a-	2.d-	4F\
2EE- 2E-	4g-	.	4.G-\
.	4b-	.	.
.	.	.	8G-\
*	*	*v	*v
=57	=57	=57
2AAA- 2AA-	4dd-	2G- 2e-
.	4cc-	.
4AAA- 4AA-	4e-	4G- 4c-
=58	=58	=58
*	*	*^
4AAA- 4AA-	4g-	2.c-	4E-\
2DD- 2D-	4f	.	4.F\
.	4d-	.	.
.	.	.	8r
*	*	*v	*v
=59	=59	=59
4GGG- 4GG-	4raa	4rc
4GGGn 4GGn	[2f	[2c-
4AAA- 4AA-	.	.
=60	=60	=60
4DD- 4D-	4f]	4c-]
4CCn 4Cn	4.ee-	2A- 2f
4CC-X 4C-X	.	.
.	8ee-	.
=61	=61	=61
2BBB- 2BB-	4ee-	2A- 2f
.	4ddn	.
4BBB- 4BB-	4f	4A- [4dn
=62	=62	=62
*	*	*^
4BBB- 4BB-	4a-	4d]	4F\
2EE- 2E-	4gn	4d-X	4.Gn\
.	4b-	4B-	.
.	.	.	8G\
=63	=63	=63	=63
2.AAA- 2.AA-	4dd-	4f	2G-X\
.	4ccn	4e-	.
.	4e-	4cn	4G-\
=64	=64	=64	=64
4DD- 4D-	4g-	2d-	4B-\
4D-	4f	.	4A-\
4Cn	4raa	4rc	4r
*	*	*v	*v
=65	=65	=65
*^	*	*
2B-	2.BB-	4f	2.d-
.	.	4en	.
4F	.	4f	.
=66	=66	=66	=66
2.F	2.BB-	4ccn	2.d-
.	.	4b-	.
.	.	4a-	.
=67	=67	=67	=67
4F	2.BB-	2.a-	2.d-
4En	.	.	.
4F	.	.	.
=68	=68	=68	=68
4B-	2.BB-	4g-	2.d-
4G-	.	4.dd-	.
4F	.	.	.
.	.	8b-	.
=69	=69	=69	=69
2.E-	2BB-	2g-	2d-
.	4AA-	4g-	4c-X
=70	=70	=70	=70
2.D-	2.D-	4f	2.c-
.	.	4e-	.
.	.	4d-	.
=71	=71	=71	=71
2.E-	2.AA-	4g-	2.c-
.	.	4a-	.
.	.	4g-	.
=72	=72	=72	=72
2.D-	2.D-	4f	2.c-
.	.	4e-	.
.	.	4d-	.
*v	*v	*	*
=73	=73	=73
4GGG- 4GG-	4raa	4rc
4GGGn 4GGn	[2f	[2c-
4AAA- 4AA-	.	.
=74	=74	=74
4DD- 4D-	4f]	4c-]
4CCn 4Cn	4.ee-	2A- 2f
4CC-X 4C-X	.	.
.	8ee-	.
=75	=75	=75
2BBB- 2BB-	4ee-	2A- 2f
.	4dd-	.
4BBB- 4BB-	4f	4A- 4d-
=76	=76	=76
*	*	*^
4BBB- 4BB-	4a-	2.d-	4F\
2EE- 2E-	4g-	.	4.G-\
.	4b-	.	.
.	.	.	8G-\
*	*	*v	*v
=77	=77	=77
2AAA- 2AA-	4dd-	2G- 2e-
.	4cc-	.
4AAA- 4AA-	4e-	4G- 4c-
=78	=78	=78
*	*	*^
4AAA- 4AA-	4g-	2.c-	4E-\
2DD- 2D-	4f	.	4.F\
.	4a-	.	.
.	.	.	8F\
*	*	*v	*v
=79	=79	=79
2.GG-	4cc-	2F 2d-
.	4b-	.
.	4d-	4G- 4B-
=80	=80	=80
2C- 2c-	4f	2G- 2An
.	4e-	.
4C- 4c-	4raa	4rc
=81	=81	=81
4BB- 4B-	4f	2G- 2B-
4r	4e-	.
4BB- 4B-	4raa	4rc
=82	=82	=82
2AAn 2An	4f	2G- 2c-
.	4e-	.
4AA-X 4A-X	4raa	4rc
=83	=83	=83
4r	2.b-	8.rc
.	.	16B-
4GG- 4G-	.	2cn
4FF 4F	.	.
=84	=84	=84
4r	2.b-	8.rc
.	.	16cn
4GG- 4G-	.	2d-
4FF 4F	.	.
=85	=85	=85
4r	2.b-	8.rc
.	.	16d-
8GG-L 8G-	.	2dn
8EEn 8En	.	.
8GG- 8G-	.	.
8FFJ 8F	.	.
=86	=86	=86
8AA-L 8A-	2cc-	4dn
16r	.	.
16FJk 16f	.	.
4.F 4.f	.	4e-
.	[4aa-	4cc-
8E- 8e-	.	.
=87	=87	=87
8D-L 8d-	4aa-]	4g-
8DnJ 8dn	.	.
4.c- 4.cc-	4ddn	4f
.	4ee-	4g-
8c- 8cc-	.	.
=88	=88	=88
8c-L 8cc-	4een	2a-
8B- 8b-	.	.
8D-X 8d-X	4ff	.
8Dn 8dn	.	.
8F 8f	4b-	4g-
8E-J 8e-	.	.
=89	=89	=89
8G-L 8g-	2ee-X	2g-
8BB- 8B-	.	.
8AA- 8A-	.	.
8AAn 8An	.	.
8D-X 8d-X	4an	4e-
8C-J 8c-	.	.
*	*v	*v
=90	=90
*^	*
8rc	4BB- 4B-	4dn 4b-
8b-L	.	.
8cn	4rEE	4r
8g-	.	.
8f	4rEE	4r
8dnJ	.	.
=91	=91	=91
2.B-	8.rEE	4r
.	16BB-	.
.	2Cn	4g-
.	.	4f
=92	=92	=92
2.B-	8.rEE	4r
.	16Cn	.
.	2D-	4g-
.	.	4f
=93	=93	=93
2.B-	8.rEE	4r
.	16D-	.
.	[2Dn	8g-L
.	.	8en
.	.	8g-
.	.	8fJ
=94	=94	=94
2c-	4D]	8a-L
.	.	16r
.	.	16ffJk
.	4E-	4.ff
4c- [4a-	4rEE	.
.	.	8ee-X
*v	*v	*
=95	=95
4G- 4a-]	8dd-XL
.	8ddnJ
4F 4dn	4.ccc-
4G- 4e-	.
.	8ccc-
=96	=96
*^	*
4f-X	2A-	8ccc-L
.	.	8bb-
4fn	.	8dd-X
.	.	8ddn
4G- [4b-	4rEE	8ff
.	.	8ee-J
*v	*v	*
=97	=97
4A- 4b-]	8ee-L
.	8eenJ
*clefG2	*
4Gn 4en	4.ddd-
4A- 4f	.
.	8ddd-
=98	=98
*^	*
4g-X	2B-	8ddd-L
.	.	8cccn
4gn	.	8ee-X
.	.	8een
[4ccn	4A-	8ggn
.	.	8ffJ
=99	=99	=99
4cc]	2An	8ffL
.	.	8gg-XJ
4cc-X	.	4.fff
4A [4g-	4rc	.
.	.	8eee-
*v	*v	*
=100	=100
4B- 4g-]	8eee-L
.	8dddn
4e- 4cc-	8ff
.	8gg-
4g- 4b-	8ddd-X
.	8cccnJ
=101	=101
*^	*
2.a-	4g-	8ccc-XL
.	.	8ee-
.	4f	8dd-
.	.	8ddn
.	4B-	8gg-
.	.	8ffJ
=102	=102	=102
4cc-	[2e-	8aa-L
.	.	8ff
4b-	.	8aa-
.	.	8gg-
8g-	8e-]	8ee-
8raa	8rc	8cc-J
*v	*v	*
=103	=103
*clefF4	*
4EE-	8r
.	8b-
4BB- 4A-	8e-L
.	16r
.	16dnJk
4r	[4g-
=104	=104
4EE-	8g-L]
.	8f
4BB- 4G-	8B-
.	8cn
4r	8dn
.	8e-J
=105	=105
*^	*
*	*^	*
4rc	4rEE	2.EE-\	8fL
.	.	.	8g-
2G-	4AA-	.	8dd-X
.	.	.	8cc-X
.	4AAn	.	8ee-
.	.	.	8c-J
*	*v	*v	*
=106	=106	=106
4rc	2EE-	8B-L
.	.	8dn
4BB- 4G-	.	8g-
.	.	8e-
4rc	4rEE	8dd-X
.	.	8cc-J
=107	=107	=107
4rc	2EE-	8r
.	.	8b-
4BB- 4A-	.	8e-L
.	.	16r
.	.	16dnJk
4rc	4rEE	[4g-
=108	=108	=108
*	*^	*
4rc	4rEE	2EE-/	8g-L]
.	.	.	8f
4G-	4.BB-	.	8B-
.	.	.	8cn
4B-	.	4GG-/	8dn
.	8Cn	.	8e-J
*	*v	*v	*
=109	=109	=109
4rc	2.FF	8enL
.	.	8fJ
4D-X 4B-	.	4dd-X
4E- 4An	.	4cc-X
=110	=110	=110
4E- 4An	2BB-	4ff
4Dn 4B-	.	8b-L
.	.	8a-X
4rc	4rEE	8g-
.	.	8fJ
*v	*v	*
=111	=111
4EE-	8r
.	8b-
4BB- 4A-	8e-L
.	16r
.	16dnJk
4r	[4g-
=112	=112
4EE-	8g-L]
.	8f
4BB- 4G-	8B-
.	8cn
4r	8dn
.	8e-J
=113	=113
*^	*
*	*^	*
4rc	4rEE	2.EE-\	8fL
.	.	.	8g-
2G-	4AA-	.	8dd-X
.	.	.	8cc-X
.	4AAn	.	8ee-
.	.	.	8c-J
=114	=114	=114	=114
4rc	4rEE	2.EE-\	8B-L
.	.	.	8dn
2G-	4BB-	.	8g-
.	.	.	8e-
.	4E-	.	8cc-
.	.	.	8b-J
*	*v	*v	*
=115	=115	=115
4rc	2EE-	8r
.	.	8ee-
4E- 4d-X	.	8a-L
.	.	16r
.	.	16gnJk
4rc	4rEE	[4cc-
=116	=116	=116
*	*^	*
4rc	4rEE	2AA-\	8cc-L]
.	.	.	8b-
4c-	4.E-	.	8e-
.	.	.	8f
4e-	.	4C-\	8gn
.	8F	.	8a-J
*	*v	*v	*
=117	=117	=117
*	*	*^
2G- 2e-	2BB-	8anL	4rc
.	.	8b-J	.
.	.	4.gg-X	4rc
4d-	4BB-	.	4b-
.	.	8gg-	.
*v	*v	*	*
=118	=118	=118
4BB- 4c-	8dd-L	4a-X
.	8ddnJ	.
4E- 4B-	8.ffL	4g-
.	16ee-Jk	.
4r	4ee-	4rc
*	*v	*v
==	==
*-	*-
!!!system-decoration: {(s1,s2)}
